X:13
T:Calum A Brasha of Carloway
C:William Livingstone Jr
B:William Livingstone Volume 1
H:
O:Kevin Fraser
Z:Kevin Fraser
Q:1/4=90
K:HP
M:6/8
L:1/8
R:March
U: R = ///
U: r = //
U: V = !accent!
V:M gstem=up stem=down name="Melody" sname="Melody" 
V:H gstem=up stem=down name="Harmony" sname="Harmony"
V:C gstem=up stem=down name="C-Harmony" sname="C-Harmony"
V:S gstem=up stem=down clef=none dyn=up name="Snare" sname="Snare"
V:B gstem=up stem=down clef=none dyn=up name="Bass" sname="Bass"
V:T gstem=up stem=down clef=none dyn=up name="Tenor" sname="Tenor"
V:BB gstem=up stem=down name="Brass Bass" sname="Bass" transpose=-1  octave=-2 clef=bass
V:BC gstem=up stem=down name="Brass Chord" sname="ABCD-D" transpose=-1
V:BD gstem=up stem=down name="Brass Chord 2" sname="ABCD-B" transpose=-1
V:P gstem=up stem=down name="Piano" sname="Piano" transpose=0 octave=-1
I:MIDI=program 110
%%MIDI gracedivider 40
% %score {M BC BD BB}
% %MIDI program 109 #bagpipes
%%MIDI vol 100
[V:M] [: f |{g}A2{GdGe}A {Gdc}d>ef | {g}A>df {ag}a3 | {f}g>e{A}e {g}A>{d}ce | {a}g>fe {gfg}f3 | 
[V:M]      |{g}A2{GdGe}A {Gdc}d>ef | {g}A>df {ag}a3 | {f}g>e{A}e {g}A>{d}ce | {Gdc}d3 {gdc}d2 :]
[V:M] [: {gf}g|a>ga A>df | {g}A>df {ag}a3 | {f}g>fg {g}A>{d}ce | {a}g>f{g}e {gfg}f3 | 
[V:M]    |a>ga A>df | {g}A>df {ag}a3 | {f}g>e{A}e {g}A>{d}ce | {Gdc}d3 {gdc}d2 :]
[V:M] [: A|{gde}d>cd {g}B<{d}G{e}B| {g}A>df {ag}a3 | {f}g>e{A}e {g}A>{d}ce | {a}g>fe {gfg}f3 | 
[V:M]    | {gde}d>cd {g}B<{d}G{e}B| {g}A>df {ag}a3 |{f}g>e{A}e {g}A>{d}ce | {Gdc}d3 {gdc}d2 :]
[V:M] [: e| {g}f2{GdG}f a2{GdG}a |{g}A>df {ag}a3 |{a}g2{GdG}g {g}A>{d}ce | {a}g>fe {gfg}f3 | 
[V:M]    |[1  a2{GdG}a A>df|{g}A>df {ag}a3 | {f}g>e{A}e {g}A>{d}ce | {Gdc}d3 {gdc}d2 :]
[V:M]    |[2 {gde}d>cd {g}B<{d}G{e}B| {g}A>df {ag}a3 |{f}g>e{A}e {g}A>{d}ce | {Gdc}d3 {gdc}d2 |]

